X:1
T:Avondale (Booth), CM
T:Avondale (Booth), CM
T:Josiah Booth, 1887
T:Public Domain Courtesy of the Cyber Hymnal™
C:Josiah Booth, 1887
Z:Public Domain
Z:Courtesy of the Cyber Hymnal™
%%score ( 1 2 ) ( 3 4 )
L:1/8
M:6/4
K:Ab
V:1 treble 
V:2 treble 
V:3 bass 
V:4 bass 
V:1
 E2 | [Ec]4 [EB]2 ([Dd]2 [Ec]2) [EB]2 | ([EA]2 [DG]2) [CF]2 E4 [DE]2 | E4 [CA]2 (G2 A2) [=DF]2 | %4
 F6 E4 E2 | [Ec]4 [Ee]2 (e2 d2) [Fc]2 | B4 [Fd]2 ([=Ed]2 [Fc]2) [GB]2 | (A2 G2) [=DA]2 c4 [GB]2 | %8
 A12 |] %9
V:2
 E2 | x12 | x6 (B,2 C2) x2 | (C2 B,2) B,4 x4 | (=D2 C2 D2 E4) E2 | x6 F4 x2 | (F2 G2) x8 | %7
 F4 (E2 F2) x4 | A12 |] %9
V:3
 [A,C]2 | (A,2 C2) [G,E]2 A,4 [D,G,]2 | ([C,A,]2 [B,,B,]2) [A,,C]2 ([G,,D]2 [A,,C]2) [B,,G,]2 | %3
 ([A,,A,]2 [G,,E,]2) [F,,E,]2 (E,2 F,2) [B,,A,]2 | ([B,,A,-]6 [E,G,]2 [F,A,]2) [G,B,]2 | %5
 (A,2 C2) [_G,B,]2 [F,=A,]4 [E,A,]2 | [D,B,]4 [B,,B,]2 G,4 [=E,C]2 | %7
 [F,C]4 [F,A,]2 [E,A,]4 [E,D]2 | [A,,A,C]12 |] %9
V:4
 x2 | A,4 (F,2 E,2) x4 | x12 | x6 B,,4 x2 | x12 | =A,4 x8 | x6 (C,2 =D,2) x2 | x12 | x12 |] %9

